X:135
T: Andrew Cary
N: O'Farrell's Pocket Companion v.2 (Sky ed. p.72)
N: "Irish"
M: 9/8
L: 1/8
Q: 320
R: slip jig
K: D
A|d2B AFA AFA|d3 ede fdB|d2B AFA AFA|B2d DFD E2 :|
D|F2A AFA AFA|G2A BGB BAG|FGA AFd AFd|B2d DFD E2 :|
